X: 11543
T: Eddie's Monaghan Twig
R: reel
M: 4/4
K: Dmajor
BGAG FDGE|F2 GF E3 A|BGAG FDGE|FAGE D3 A|
BGAG FDGE|F2 GF E3 A|A2 Bd ecAG|FAGE D3 A|
BAB=c BAFA|edBd e3 f|edBd ecAG|FAGE D3 A|
BAB=c BAFA|edBd e3 f|edBd ecAG|FAGE D4|

